X: 8854
T: Culfadda, The
R: reel
M: 4/4
K: Gmajor
A|BedB AcBA|GBAG EFGE|D~B3 DEGA|BGdB A2GA|
BedB AcBA|GBAG EFGE|D~B3 DEGA|(3BAG AF ~G3:|
B|~d3B ~c3A|GABG ABGE|D~G3 D~G3|cBAG EGAB|
~c3e d~B3|edef gdBG|DG~G2 DGBc|dBAc B~G3:|

